X:10
T:Árva madár mit keseregsz az ágon
K:Bb
M:4/4
L:1/4
f2 g d/c/ | d< d g2 | 
f2 a/g/d/c/ | d<B B2 | 
f/e/d/c/ c/d/ G/F/ | G<G c2 | 
B2 d/c/ G/F/ | B<G G2 | 

